X:652
T:Reel 652
M:4/4
K:Dmaj
L:1/8
 (3ABc |d2FG Adef|gfed edBc|d2FG A2de|fgaf e2A (3BBc |d2fd Afed|BA (3Bcd egfe|d2FB A2FD|EFEF G2|AG|FAdc BDFD|Eeef gfed|ec (3cBA eAcd (3efg |fdec d2FA|BdcA BFAF|GB (3ABA Bdfe| (3ged ec fdec|dBAF D2|
